!!!!SEGMENT: Fss2002-Hec_est_illa_dulcis_rosa.krn
!!!id: Fss2002
!!!AGN: Motet
!!!SCT: Sherr (1989)
!!!voices: 4
!!!COM: Sebastiano Festa
!!!OTL: Hec est illa dulcis rosa
**kern	**kern	**kern	**kern
*part4	*part3	*part2	*part1
*staff4	*staff3	*staff2	*staff1
*I"Bassus	*I"Tenor	*I"Altus	*I"Superius
*I'B	*I'T	*I'A	*I'S
*clefF4	*clefGv2	*clefGv2	*clefG2
*k[]	*k[]	*k[]	*k[]
*C:	*C:	*C:	*C:
*M2/1	*M2/1	*M2/1	*M2/1
*met(C|)	*met(C|)	*met(C|)	*met(C|)
!!section: Prima pars: Hec est illa dulcis rosa
!!!OMD: Prima pars: Hec est illa dulcis rosa
=1	=1	=1	=1
0r	0r	0r	0g
=2	=2	=2	=2
0r	0r	0r	0a
=3	=3	=3	=3
0r	0G	0r	0g
=4	=4	=4	=4
0r	0A	0r	2e
.	.	.	2f
.	.	.	2.e
.	.	.	8dL
.	.	.	8cJ
=5	=5	=5	=5
0r	0G	0d	1.B
.	.	.	[2B
=6	=6	=6	=6
0r	0E	0e	2B]
.	.	.	1g
.	.	.	4f
.	.	.	4e
=7	=7	=7	=7
0D	0A	0d	2f#i
.	.	.	1g
.	.	.	2f#i
=8	=8	=8	=8
0E	0G	1.B	0g
.	.	2c	.
=9	=9	=9	=9
0D	0A	1d	1.f
.	.	[1D	.
.	.	.	2d
=10	=10	=10	=10
0BB	0D	2D]	0d
.	.	2E	.
.	.	2F	.
.	.	2G	.
=11	=11	=11	=11
1AA	1E	0A	1c
[1A	[1F	.	[1d
=12	=12	=12	=12
2A]	2F]	1r	2d]
2G	2E	.	2c
1G	1C	1e	[1c
=13	=13	=13	=13
0F	0D	1f	1c]
.	.	2.F	1B
.	.	8EL	.
.	.	8DJ	.
=14	=14	=14	=14
[0FF	[0F	[0A	[0c
=15	=15	=15	=15
0FF;]	0F;]	0A;]	0c;]
=16	=16	=16	=16
1D	0A	1d	1f
[1F	.	1c	[1a
=17	=17	=17	=17
1F]	0c	1A	1a]
1E	.	1e	1g
=18	=18	=18	=18
0D	1B	1.f	1.dd
.	[1A	.	.
.	.	4e	4cc
.	.	4d	4b
=19	=19	=19	=19
0F	1A]	1c	1a
.	[1c	1A	1a
=20	=20	=20	=20
0E	1c]	1e	0g
.	[1B	1E	.
=21	=21	=21	=21
0D	1B]	0F	0f
.	[1A	.	.
=22	=22	=22	=22
[0C	1A]	[0c	[0e
.	[1G	.	.
=23	=23	=23	=23
0C_	0G_	1c]	0e]
.	.	2.c	.
.	.	4d	.
=24	=24	=24	=24
0C]	1G]	4e	1cc
.	.	4f	.
.	.	2.e	.
.	1c	.	[1cc
.	.	4d	.
.	.	4c	.
.	.	4B	.
=25	=25	=25	=25
1F	1.c	1A	2cc]
.	.	.	2cc
[1F	.	1f	[1a
.	2c	.	.
=26	=26	=26	=26
2F]	[0A	1.f	0a_
2F	.	.	.
[1D	.	.	.
.	.	2f	.
=27	=27	=27	=27
1D]	0A]	1d	1a]
1D	.	1f	[1a
=28	=28	=28	=28
0F	1A	0f	1a]
.	1A	.	1a
=29	=29	=29	=29
0G	0B	0d	1g
.	.	.	[1g
=30	=30	=30	=30
0C	0G	0c	2g]
.	.	.	2e
.	.	.	1e
=31	=31	=31	=31
2r	1A	2r	[0e
1A	.	1c	.
.	1E	.	.
2G#i	.	2B	.
=32	=32	=32	=32
1A	2r	1c	0e_
.	1A	.	.
1E	.	1B	.
.	2G#i	.	.
=33	=33	=33	=33
2r	1A	2r	0e_
1A	.	1c	.
.	1E	.	.
2G#i	.	2B	.
=34	=34	=34	=34
1A	2r	1c	0e]
.	1A	.	.
1E	.	2B	.
.	2G#i	[2e	.
=35	=35	=35	=35
0r	1A	2e]	2r
.	.	4d	1a
.	.	4c	.
.	1E	1B	.
.	.	.	2g#i
=36	=36	=36	=36
0A	0c	1A	1a
.	.	2r	1e
.	.	2e	.
=37	=37	=37	=37
1D	1d	1f	2r
.	.	.	1a
1E	1B	[1e	.
.	.	.	2g#i
=38	=38	=38	=38
0AA	0A	1e]	1a
.	.	1c	[1e
=39	=39	=39	=39
1E	1G	2.B	2e]
.	.	.	4d
.	.	4c	4e
2D	2A	2d	2f
2E	2G	[2B	[2e
=40	=40	=40	=40
0F	0A	4B]	2e]
.	.	4A	.
.	.	2A	4d
.	.	.	4c
.	.	2F	1d
.	.	[2A	.
=41	=41	=41	=41
0E	0B	2A]	[0e
.	.	4G#i	.
.	.	4F#i	.
.	.	1G#i	.
=42	=42	=42	=42
0AA	1A	2A	0e]
.	.	1c	.
.	1r	.	.
.	.	4B	.
.	.	4A	.
=43	=43	=43	=43
1E	1B	1G	0r
2D	1B	2F	.
[2E	.	[2G	.
=44	=44	=44	=44
4E]	0c	4G]	0r
4D	.	4F	.
4C	.	2G	.
4BB	.	.	.
1AA	.	1A	.
=45	=45	=45	=45
1E	1.B	1G	0r
[1D	.	[1F	.
.	2A	.	.
=46	=46	=46	=46
2D]	1.A	2F]	0r
2C	.	2E	.
[1C	.	1E	.
.	2G	.	.
=47	=47	=47	=47
2C]	1.G	2E	1b
2BB	.	2D	.
1BB	.	1D	1b
.	4F	.	.
.	4E	.	.
=48	=48	=48	=48
0AA	2F#i	0C	0cc
.	2.G	.	.
.	4F#i	.	.
.	4F#i	.	.
.	8EL	.	.
.	8F#iJ	.	.
=49	=49	=49	=49
1GG	1G	2D	1.b
.	.	2.d	.
2.G	1r	.	.
.	.	4c	.
.	.	4d	2a
4F	.	4e	.
=50	=50	=50	=50
2.D	2.d	2.f	1.a
4E	4c	4e	.
2.F	2.A	2.c	.
.	.	.	2g
4E	4B	4d	.
=51	=51	=51	=51
2.C	2.c	2.e	1.g
4D	4B	4d	.
1E	1G	2B	.
.	.	2c	4f
.	.	.	4e
=52	=52	=52	=52
0D	1.A	0d	2f#i
.	.	.	2.g
.	.	.	4f#i
.	2B	.	4f#i
.	.	.	4e
=53	=53	=53	=53
0C	0c	0e	0g
=54	=54	=54	=54
1r	1r	1r	1r
1F	1c	1f	1a
=55	=55	=55	=55
1F	1c	1f	1a
[1D	[1d	[1f	1a
=56	=56	=56	=56
1D]	1d]	1f]	1b
[1C	[1e	[1g	1cc
=57	=57	=57	=57
1C]	1e]	1g]	1cc
1G	[1d	1g	1b
=58	=58	=58	=58
1D	1d]	1f	1.a
1G	1B	1d	.
.	.	.	2g
=59	=59	=59	=59
1C	1c	1e	1g
[1D	[1A	[1d	1g
=60	=60	=60	=60
1D]	1A]	1d]	1f#i
[1GG	[1G	[1B	[1g
=61	=61	=61	=61
1GG]	1G]	1B]	1g]
1r	1r	1r	1r
=62	=62	=62	=62
1C	1e	1c	1g
1D	1d	1A	1f
=63	=63	=63	=63
1G	1e	1B	1g
[1F	[1f	[1c	[1a
=64	=64	=64	=64
1F]	1f]	1c]	1a]
[1C	[1e	[1g	[1cc
=65	=65	=65	=65
1C]	1e]	1g]	1cc]
[1D	[1d	[1f	1b
=66	=66	=66	=66
1D]	1d]	1f]	1.a
1E	1B	[1e	.
.	.	.	2g
=67	=67	=67	=67
1C	1c	1e]	1g
[1D	[1A	[1d	1g
=68	=68	=68	=68
1D]	1A]	0d_	1f#i
[1GG	[1G	.	[1g
=69	=69	=69	=69
1GG]	1G]	1d]	1g]
2r	2r	2r	2r
[2C	[2c	[2e	[2g
=70	=70	=70	=70
2C]	2c]	2e]	2g]
2C	2G	2c	2e
[1F	[1A	[1d	[1f
=71	=71	=71	=71
2F]	2A]	2d]	2f]
2G	2G	2B	2d
[1C	[1G	[1c	[1e
=72	=72	=72	=72
1C]	1G]	1c]	1e]
2r	2r	2r	2r
[2C	[2G	[2e	[2c
=73	=73	=73	=73
2C]	2G]	2e]	2c]
2BB	2G	2d	2d
[1C	1G	[1c	[1e
=74	=74	=74	=74
2C]	[0Gl	2c]	2e]
2GG	.	2B	2d
[1GGl	.	[1Bl	[1dl
=75	=75	=75	=75
00GG]	00G]	00B]	00d]
==	==	==	==
*-	*-	*-	*-
!!!system-decoration: [*]
!!!RDF**kern: i = editorial accidental
!!!RDF**kern: l = terminal long
!!!ENC: Benjamin Ory
!!!END: 2021/1/10
!!!EED: Benjamin Ory
!!!EEV: 2021/04/27
!!!YEC: Copyright 2021 Benjamin Ory, All Rights Reserved
!!!ONB: Translated from MusicXML on 2021/04/27
